docs/assets/images/logo_ldo.svg

<svg xmlns="http://www.w3.org/2000/svg" xml:space="preserve" width="90" height="80" viewBox="0 0 45 40">
  <path d="M42.53 8.87 34.5.68H2.48v30.65l7.85 7.99h32.2zM13.26 34.54l-6.19-6.3V9.96l4.09 4.17v12.43l3.95 4.03H27.3l3.9 3.94H13.26zm.49-14.3a8.33 8.33 0 1 1 8.33 8.33c-4.61 0-8.33-3.73-8.33-8.33m24 14.32h-4.5L27.4 28.6a10.1 10.1 0 0 0 2.94-2.82l3.35 3.38-.02-15.71L29.7 9.4H14.32l2.42 2.45a9.9 9.9 0 0 0-2.9 2.89L7.07 7.86v-2.4h24.47l6.21 6.31zm-11.3-14.32c0 2.42-1.96 4.38-4.38 4.38s-4.38-1.96-4.38-4.38 1.96-4.38 4.38-4.38 4.38 1.96 4.38 4.38" style="fill:#326799"/>
</svg>

<svg version="1.1" id="Layer_1" xmlns="http://www.w3.org/2000/svg" xmlns:xlink="http://www.w3.org/1999/xlink"
  width="90"
  height="80"
  viewBox="0 0 45 40"  xml:space="preserve">
    <g id="LDO_logo">
      <g>
	<path style="fill: #326799" d="M42.53,8.87l-8.03-8.19l-32.02,0v30.65l7.85,7.99l32.2,0L42.53,8.87z M13.26,34.54l-6.19-6.3V9.96l4.09,4.17v12.43
	l3.95,4.03h12.19l3.9,3.94H13.26z M13.75,20.24c0-4.6,3.73-8.33,8.33-8.33c4.6,0,8.33,3.73,8.33,8.33s-3.73,8.33-8.33,8.33
	C17.47,28.57,13.75,24.84,13.75,20.24z M37.75,34.56h-4.5l-5.85-5.96c1.16-0.73,2.16-1.69,2.94-2.82l3.35,3.38l-0.02-15.71L29.7,9.4
	H14.32l2.42,2.45c-1.16,0.75-2.15,1.74-2.9,2.89L7.07,7.86v-2.4h24.47l6.21,6.31V34.56z M26.45,20.24c0,2.42-1.96,4.38-4.38,4.38
	c-2.42,0-4.38-1.96-4.38-4.38c0-2.42,1.96-4.38,4.38-4.38C24.49,15.86,26.45,17.82,26.45,20.24z"/>
      </g>
    </g>
</svg>
